assets/audios2/cauldron.svg

<?xml version="1.0" ?><!-- Uploaded to: SVG Repo, www.svgrepo.com, Generator: SVG Repo Mixer Tools -->
<svg width="800px" height="800px" viewBox="0 0 24 24" data-name="Layer 1" id="Layer_1" xmlns="http://www.w3.org/2000/svg"><title/><path d="M16.28759,21.168c-1.0435,1.0434-2.1367,1.0373-2.8148.3592s-.6842-1.7713.35921-2.8148,3.41939-.9638,3.41939-.9638S17.331,20.1245,16.28759,21.168Z" style="fill:#fa6d62"/><path d="M14.80979,21.3566c-.4956.4956-1.0149.4927-1.337.1706s-.325-.8414.1706-1.337a2.64059,2.64059,0,0,1,1.6242-.4578A2.64059,2.64059,0,0,1,14.80979,21.3566Z" style="fill:#fff4ab"/><path d="M7.71239,21.168c1.0435,1.0434,2.1367,1.0373,2.8148.3592s.6842-1.7713-.35919-2.8148-3.41941-.9638-3.41941-.9638S6.669,20.1245,7.71239,21.168Z" style="fill:#fa6d62"/><path d="M9.19019,21.3566c.4956.4956,1.0149.4927,1.337.1706s.325-.8414-.1706-1.337a2.64059,2.64059,0,0,0-1.6242-.4578A2.64059,2.64059,0,0,0,9.19019,21.3566Z" style="fill:#fff4ab"/><path d="M5.079,8A8,8,0,1,0,18.921,8Z" style="fill:#4b5661"/><circle cx="7.5" cy="5.5" r="1.5" style="fill:#67c7a5"/><circle cx="11" cy="2" r="1" style="fill:#67c7a5"/><circle cx="12.5" cy="7.5" r="2.5" style="fill:#67c7a5"/><path d="M20,10H4A1,1,0,0,1,3,9H3A1,1,0,0,1,4,8H20a1,1,0,0,1,1,1h0A1,1,0,0,1,20,10Z" style="fill:#4b5661"/><circle cx="17.5" cy="3.5" r="1.5" style="fill:#67c7a5"/><path d="M13.73629,19.7556C13.73629,21.2313,12.95889,22,12,22s-1.73631-.7687-1.73631-2.2444S12,16.6563,12,16.6563,13.73629,18.28,13.73629,19.7556Z" style="fill:#fa6d62"/><path d="M12.82479,20.9339C12.82479,21.6348,12.45549,22,12,22s-.82481-.3652-.82481-1.0661A2.64038,2.64038,0,0,1,12,19.4617,2.64039,2.64039,0,0,1,12.82479,20.9339Z" style="fill:#fff4ab"/></svg>

<svg xmlns="http://www.w3.org/2000/svg" width="800" height="800" viewBox="0 0 24 24" xmlns:v="https://vecta.io/nano"><path d="M16.288 21.168c-1.043 1.043-2.137 1.037-2.815.359s-.684-1.771.359-2.815 3.419-.964 3.419-.964.08 2.376-.964 3.419z" fill="#fa6d62"/><path d="M14.81 21.357c-.496.496-1.015.493-1.337.171s-.325-.841.171-1.337a2.641 2.641 0 0 1 1.624-.458 2.641 2.641 0 0 1-.458 1.624z" fill="#fff4ab"/><path d="M7.712 21.168c1.044 1.043 2.137 1.037 2.815.359s.684-1.771-.359-2.815-3.419-.964-3.419-.964-.08 2.376.964 3.419z" fill="#fa6d62"/><path d="M9.19 21.357c.496.496 1.015.493 1.337.171s.325-.841-.171-1.337a2.641 2.641 0 0 0-1.624-.458 2.641 2.641 0 0 0 .458 1.624z" fill="#fff4ab"/><path d="M5.079,8A8,8,0,1,0,18.921,8Z" fill="#4b5661"/><g fill="#67c7a5"><circle cx="7.5" cy="5.5" r="1.5"/><circle cx="11" cy="2" r="1"/><circle cx="12.5" cy="7.5" r="2.5"/></g><path d="M20 10H4a1 1 0 0 1-1-1h0a1 1 0 0 1 1-1h16a1 1 0 0 1 1 1h0a1 1 0 0 1-1 1z" fill="#4b5661"/><circle cx="17.5" cy="3.5" r="1.5" fill="#67c7a5"/><path d="M13.736 19.756C13.736 21.231 12.959 22 12 22s-1.736-.769-1.736-2.244S12 16.656 12 16.656s1.736 1.624 1.736 3.099z" fill="#fa6d62"/><path d="M12.825 20.934c0 .701-.369 1.066-.825 1.066s-.825-.365-.825-1.066A2.64 2.64 0 0 1 12 19.462a2.64 2.64 0 0 1 .825 1.472z" fill="#fff4ab"/></svg>
